findly-builder/apps/searchassist/src/assets/icons/sidemenu/new-icons/facets.svg

<svg width="14" height="13" viewBox="0 0 14 13" fill="none" xmlns="http://www.w3.org/2000/svg">
<path d="M7 2.95516e-06C6.91611 -0.000285419 6.8335 0.0205359 6.75977 0.0605498L1.25977 3.06055C1.18068 3.10349 1.11464 3.16699 1.06863 3.24433C1.02261 3.32168 0.998322 3.41 0.998322 3.5C0.998322 3.59 1.02261 3.67833 1.06863 3.75568C1.11464 3.83302 1.18068 3.89651 1.25977 3.93946L3.20313 5L1.25977 6.06055C1.18068 6.10349 1.11464 6.16699 1.06863 6.24433C1.02261 6.32168 0.998322 6.41001 0.998322 6.5C0.998322 6.59 1.02261 6.67833 1.06863 6.75568C1.11464 6.83302 1.18068 6.89651 1.25977 6.93946L3.20313 8L1.25977 9.06055C1.18068 9.10349 1.11464 9.16699 1.06863 9.24433C1.02261 9.32168 0.998322 9.41 0.998322 9.5C0.998322 9.59 1.02261 9.67833 1.06863 9.75568C1.11464 9.83302 1.18068 9.89651 1.25977 9.93946L6.75977 12.9395C6.83342 12.9798 6.91603 13.0009 7 13.0009C7.08397 13.0009 7.16659 12.9798 7.24024 12.9395L12.7402 9.93946C12.8193 9.89651 12.8854 9.83302 12.9314 9.75568C12.9774 9.67833 13.0017 9.59 13.0017 9.5C13.0017 9.41 12.9774 9.32168 12.9314 9.24433C12.8854 9.16699 12.8193 9.10349 12.7402 9.06055L10.7969 8L12.7402 6.93946C12.8193 6.89651 12.8854 6.83302 12.9314 6.75568C12.9774 6.67833 13.0017 6.59 13.0017 6.5C13.0017 6.41001 12.9774 6.32168 12.9314 6.24433C12.8854 6.16699 12.8193 6.10349 12.7402 6.06055L10.7969 5L12.7402 3.93946C12.8193 3.89651 12.8854 3.83302 12.9314 3.75568C12.9774 3.67833 13.0017 3.59 13.0017 3.5C13.0017 3.41 12.9774 3.32168 12.9314 3.24433C12.8854 3.16699 12.8193 3.10349 12.7402 3.06055L7.24024 0.0605498C7.16651 0.0205359 7.08389 -0.000285419 7 2.95516e-06ZM7 1.07032L11.4551 3.5L9.50977 4.56055L7 5.92969L2.54493 3.5L7 1.07032ZM4.25 5.57032L6.75977 6.93946C6.83342 6.9798 6.91603 7.00094 7 7.00094C7.08397 7.00094 7.16659 6.9798 7.24024 6.93946L9.75 5.57032L11.4551 6.5L9.51172 7.56055L7 8.92969L4.48438 7.5586L2.54493 6.5L4.25 5.57032ZM4.25 8.57032L6.75977 9.93946C6.83342 9.9798 6.91603 10.0009 7 10.0009C7.08397 10.0009 7.16659 9.9798 7.24024 9.93946L9.75 8.57032L11.4551 9.5L7 11.9297L2.54493 9.5L4.25 8.57032Z" fill="black"/>
</svg>

<svg width="14" height="13" fill="none" xmlns="http://www.w3.org/2000/svg"><path d="M7 0a.5.5 0 0 0-.24.06l-5.5 3a.5.5 0 0 0 0 .88L3.203 5 1.26 6.06a.5.5 0 0 0 0 .88L3.203 8 1.26 9.06a.5.5 0 0 0 0 .88l5.5 3a.5.5 0 0 0 .48 0l5.5-3a.5.5 0 0 0 0-.88L10.797 8l1.943-1.06a.5.5 0 0 0 0-.88L10.797 5l1.943-1.06a.5.5 0 0 0 0-.88l-5.5-3A.5.5 0 0 0 7 0Zm0 1.07 4.455 2.43L9.51 4.56 7 5.93 2.545 3.5 7 1.07Zm-2.75 4.5 2.51 1.37a.5.5 0 0 0 .48 0l2.51-1.37 1.705.93-1.943 1.06L7 8.93 4.484 7.559 2.544 6.5l1.706-.93Zm0 3 2.51 1.37a.5.5 0 0 0 .48 0l2.51-1.37 1.705.93L7 11.93 2.545 9.5l1.705-.93Z" fill="#000"/></svg>
